X:1
T:Title
%%score { ( 1 2 ) | ( 3 4 ) }
L:1/8
M:4/4
K:Eb
V:1 treble nm="Grand Piano"
V:2 treble 
V:3 bass 
V:4 bass 
V:1
 z4 z2[Q:1/4=100] z F | G2 [GB][Ac] [GB]GFE | c[Ec][Ec][Ec] [EB]3 [EB] | [Ge][Ge][Ad][Ac] [GB]GEB | %4
 cBAG z A, z F | G2 [GB][Ac] [GB]GFE |[M:9/8] ccc d e2- edc |[M:4/4] BeEF G2 [DF]2 |[M:3/4] E6 | %9
[M:1/4] Be |[M:4/4] d6 z2 | [Ac][GB][GB][_G=A] [=GB]2 Be | d6 z2 | B=ABc B_AGF | %14
 G2 [GB][Ac] [GB]GFE |[M:9/8] ccc d e2- edc |[M:4/4] BeEF G2 [DF]2 |[M:3/4] E6 |] %18
V:2
 z4 z2 E2 | x8 | x8 | x8 | z4 [DF]2 E2 | x8 |[M:9/8] x9 |[M:4/4] x8 |[M:3/4] x6 |[M:1/4] x2 | %10
[M:4/4] z2 F>F FFAd | x8 | z2 B,>B, B,cB=A | x8 | x8 |[M:9/8] x9 |[M:4/4] x8 |[M:3/4] x6 |] %18
V:3
 z4 z2 G,A, | [E,B,E]2 [E,E][E,E] [E,E][E,B,E][F,B,D][G,B,] | %2
 [A,E][B,,A,][C,A,][D,A,] [E,G,]3 [E,G,] | [E,B,][E,B,][E,C][E,D] [E,E][E,B,E][E,G,][G,B,E] | %4
 [A,E][G,B,E][F,B,D][E,B,E] .[B,,B,]2 G,A, | [E,B,E]2 [E,E][E,E] [E,E][E,B,E][F,B,D][G,B,] | %6
[M:9/8] [A,E][A,E][A,E] [A,B,E] [A,CE]2- [A,CE][A,B,E][A,E] | %7
[M:4/4] [G,B,E][G,B,E][A,C][A,CE] [B,E]2 [B,,A,]2 |[M:3/4] [E,G,]6 |[M:1/4][K:treble] GG | %10
[M:4/4] A6 z2 | [E,E][E,E][E,E][E,E] [E,E]2[K:treble] GG | F6[K:bass] z2 | [B,D]=A,B,C B,_A,G,F, | %14
 [E,B,E]2 [E,E][E,E] [E,E][E,B,E][F,B,D][G,B,] | %15
[M:9/8] [A,E][A,E][A,E] [A,B,E] [A,CE]2- [A,CE][A,B,E][A,E] | %16
[M:4/4] [G,B,E][G,B,E][A,C][A,CE] [B,E]2 [B,,A,]2 |[M:3/4] [E,G,]6 |] %18
V:4
 z4 z2 E,2 | x8 | x8 | x8 | z4 z2 E,2 | x8 |[M:9/8] x9 |[M:4/4] x8 |[M:3/4] x6 | %9
[M:1/4][K:treble] x2 |[M:4/4] z2 B,>B, B,B,[B,DF][B,DB] | x6[K:treble] x2 | %12
 z2[K:bass] F,>F, F,[F,=A,E][F,B,D][F,CE] | x8 | x8 |[M:9/8] x9 |[M:4/4] x8 |[M:3/4] x6 |] %18

